src/cmd/sc_tabdialog.svg

<svg viewBox="0 0 16 16" xmlns="http://www.w3.org/2000/svg"><path d="m2 2v1h12v-1zm1.9726562 2v5.0625l-1.7148437-1.625-.7578125.71875 2.7695312 2.65625.1972657.1875h.0664062l.1972657-.1875 2.7695312-2.65625-.7578125-.71875-1.7148437 1.625v-5.0625zm7.4941408 0-.197266.1875-2.769531 2.65625.7578125.71875 1.7148435-1.625v5.0625h1.054688v-5.0625l1.714844 1.625.757812-.71875-2.769531-2.65625-.197266-.1875zm-9.466797 9v1h3v-1z" fill="#232629"/><path d="m7 12c-.55228 0-1 .44772-1 1s.44772 1 1 1 1-.44772 1-1-.44772-1-1-1zm3 0c-.55228 0-1 .44772-1 1s.44772 1 1 1 1-.44772 1-1-.44772-1-1-1zm3 0c-.55228 0-1 .44772-1 1s.44772 1 1 1 1-.44772 1-1-.44772-1-1-1z" fill="#e95420"/></svg>

<?xml version="1.0" encoding="UTF-8" standalone="no"?>
<svg
   xmlns:dc="http://purl.org/dc/elements/1.1/"
   xmlns:cc="http://creativecommons.org/ns#"
   xmlns:rdf="http://www.w3.org/1999/02/22-rdf-syntax-ns#"
   xmlns:svg="http://www.w3.org/2000/svg"
   xmlns="http://www.w3.org/2000/svg"
   xmlns:sodipodi="http://sodipodi.sourceforge.net/DTD/sodipodi-0.dtd"
   xmlns:inkscape="http://www.inkscape.org/namespaces/inkscape"
   viewBox="0 0 16 16"
   version="1.1"
   id="svg6"
   sodipodi:docname="sc_tabdialog.svg"
   inkscape:version="0.92.4 (5da689c313, 2019-01-14)">
  <metadata
     id="metadata12">
    <rdf:RDF>
      <cc:Work
         rdf:about="">
        <dc:format>image/svg+xml</dc:format>
        <dc:type
           rdf:resource="http://purl.org/dc/dcmitype/StillImage" />
      </cc:Work>
    </rdf:RDF>
  </metadata>
  <defs
     id="defs10" />
  <sodipodi:namedview
     pagecolor="#ffffff"
     bordercolor="#666666"
     borderopacity="1"
     objecttolerance="10"
     gridtolerance="10"
     guidetolerance="10"
     inkscape:pageopacity="0"
     inkscape:pageshadow="2"
     inkscape:window-width="1920"
     inkscape:window-height="1011"
     id="namedview8"
     showgrid="true"
     inkscape:zoom="29.5"
     inkscape:cx="7.1732971"
     inkscape:cy="4.3510284"
     inkscape:window-x="0"
     inkscape:window-y="32"
     inkscape:window-maximized="1"
     inkscape:current-layer="svg6">
    <inkscape:grid
       type="xygrid"
       id="grid822" />
  </sodipodi:namedview>
  <path
     d="M 2,2 V 3 H 14 V 2 Z M 3.9726562,4 V 9.0625 L 2.2578125,7.4375 1.5,8.15625 4.2695312,10.8125 4.4667969,11 h 0.066406 L 4.7304688,10.8125 7.5,8.15625 6.7421875,7.4375 5.0273438,9.0625 V 4 Z M 11.466797,4 11.269531,4.1875 8.5,6.84375 9.2578125,7.5625 10.972656,5.9375 V 11 h 1.054688 V 5.9375 L 13.742188,7.5625 14.5,6.84375 11.730469,4.1875 11.533203,4 Z M 2,13 v 1 h 12 v -1 z"
     id="path2"
     inkscape:connector-curvature="0"
     style="fill:#232629"
     sodipodi:nodetypes="cccccccccccccccccccccccccccccccccccc" />
</svg>
